data/styles/clear/style-clear/symbols/gift-m.svg

<svg height="24" viewBox="0 0 24 24" width="24"><g fill="none" fill-rule="evenodd"><circle cx="12" cy="12" fill="#fff" opacity=".6" r="12"/><circle cx="12" cy="12" fill="#8c5f93" r="11"/><path d="m17.0769231 9.41630901h-3.6923077v2.57510729h4.6153846v-1.7167382c0-.4746781-.4126154-.85836909-.9230769-.85836909zm-11.0769231 7.72532189c0 .4746781.41261538.8583691.92307692.8583691h3.69230768v-4.2918455h-4.6153846zm0-6.8669528v1.7167382h4.6153846v-2.57510729h-3.69230768c-.51046154 0-.92307692.38369099-.92307692.85836909zm7.3846154 7.7253219h3.6923077c.5104615 0 .9230769-.383691.9230769-.8583691v-3.4334764h-4.6153846zm-4.01630771-9.44206009h5.26246151c.7578462 0 1.3753846-.57424892 1.3753846-1.27896995s-.6175384-1.27896996-1.3753846-1.27896996c-.3664615 0-.7135384.13304721-.9747692.37596567l-1.6569231 1.52703862-1.6587692-1.52789699c-.2593846-.24206009-.60461539-.3751073-.97292308-.3751073-.75784616 0-1.37538462.57424893-1.37538462 1.27896996s.61846154 1.27896995 1.37630769 1.27896995z" fill="#fff"/></g></svg>

<svg width="24" height="24" viewBox="0 0 24 24">
  <g fill="none" fill-rule="evenodd">
    <circle cx="12" cy="12" r="12" fill="#FFF" opacity=".6"/>
    <circle cx="12" cy="12" r="11" fill="#8C5F93"/>
    <path fill="#FFF" d="M17.0769231,9.41630901 L13.3846154,9.41630901 L13.3846154,11.9914163 L18,11.9914163 L18,10.2746781 C18,9.8 17.5873846,9.41630901 17.0769231,9.41630901 L17.0769231,9.41630901 Z M6,17.1416309 C6,17.616309 6.41261538,18 6.92307692,18 L10.6153846,18 L10.6153846,13.7081545 L6,13.7081545 L6,17.1416309 L6,17.1416309 Z M6,10.2746781 L6,11.9914163 L10.6153846,11.9914163 L10.6153846,9.41630901 L6.92307692,9.41630901 C6.41261538,9.41630901 6,9.8 6,10.2746781 L6,10.2746781 Z M13.3846154,18 L17.0769231,18 C17.5873846,18 18,17.616309 18,17.1416309 L18,13.7081545 L13.3846154,13.7081545 L13.3846154,18 L13.3846154,18 Z M9.36830769,8.55793991 L14.6307692,8.55793991 C15.3886154,8.55793991 16.0061538,7.98369099 16.0061538,7.27896996 C16.0061538,6.57424893 15.3886154,6 14.6307692,6 C14.2643077,6 13.9172308,6.13304721 13.656,6.37596567 L11.9990769,7.90300429 L10.3403077,6.3751073 C10.0809231,6.13304721 9.73569231,6 9.36738462,6 C8.60953846,6 7.992,6.57424893 7.992,7.27896996 C7.992,7.98369099 8.61046154,8.55793991 9.36830769,8.55793991 L9.36830769,8.55793991 Z"/>
  </g>
</svg>
